chrome/icons/hamburger.svg

<svg height="16" viewBox="0 128 1024 704" width="16" xmlns="http://www.w3.org/2000/svg" xmlns:xlink="http://www.w3.org/1999/xlink">
  <path d="M32,192C23.3333,192 15.8333,188.833 9.5,182.5C3.16667,176.167 0,168.667 0,160C0,151.333 3.16667,143.833 9.5,137.5C15.8333,131.167 23.3333,128 32,128L992,128C1000.67,128 1008.17,131.167 1014.5,137.5C1020.83,143.833 1024,151.333 1024,160C1024,168.667 1020.83,176.167 1014.5,182.5C1008.17,188.833 1000.67,192 992,192ZM32,512C23.3333,512 15.8333,508.833 9.5,502.5C3.16667,496.167 0,488.667 0,480C0,471.333 3.16667,463.833 9.5,457.5C15.8333,451.167 23.3333,448 32,448L992,448C1000.67,448 1008.17,451.167 1014.5,457.5C1020.83,463.833 1024,471.333 1024,480C1024,488.667 1020.83,496.167 1014.5,502.5C1008.17,508.833 1000.67,512 992,512ZM32,832C23.3333,832 15.8333,828.833 9.5,822.5C3.16667,816.167 0,808.667 0,800C0,791.333 3.16667,783.833 9.5,777.5C15.8333,771.167 23.3333,768 32,768L992,768C1000.67,768 1008.17,771.167 1014.5,777.5C1020.83,783.833 1024,791.333 1024,800C1024,808.667 1020.83,816.167 1014.5,822.5C1008.17,828.833 1000.67,832 992,832Z" fill="context-fill" fill-opacity="context-fill-opacity">
  </path>
</svg>

<svg xmlns="http://www.w3.org/2000/svg" width="16" height="16" viewBox="0 128 1024 704"><path fill="context-fill" fill-opacity="context-fill-opacity" d="M32 192q-13 0-22.5-9.5T0 160t9.5-22.5T32 128h960q13.005 0 22.5 9.5c6.33 6.333 9.5 13.833 9.5 22.5s-3.17 16.167-9.5 22.5q-9.495 9.5-22.5 9.5Zm0 320q-13 0-22.5-9.5T0 480t9.5-22.5T32 448h960q13.005 0 22.5 9.5c6.33 6.333 9.5 13.833 9.5 22.5s-3.17 16.167-9.5 22.5q-9.495 9.5-22.5 9.5Zm0 320q-13 0-22.5-9.5T0 800t9.5-22.5T32 768h960q13.005 0 22.5 9.5c6.33 6.333 9.5 13.833 9.5 22.5s-3.17 16.167-9.5 22.5q-9.495 9.5-22.5 9.5Z"/></svg>
